X: 20853
M: 2/4
L: 1/16
K: F
V: 1 name="6"
c4 e2g2 | b6 bg | fedc =Bcde | f2a2f2 H|]
c=B |\
c2c=B c2e2 | c2a2 f2c'2 | afcf afc'a | gfed c2c=B |\
c2c=B c2e2 | c2g2 e2a2 | g2e2 c2de | g4 "^D.C."f2 |]
K: Bb
de |\
fbag fedc | BABd c=Bce | dBfd bfdB | cBAG F2de |\
fbag fedc | BABd c=Bce | fbag fedc | f2a2"^D.C."f2 |]


